static/img/menus/ico-air-default.svg

<svg width="16" height="16" viewBox="0 0 16 16" fill="none" xmlns="http://www.w3.org/2000/svg">
<g clip-path="url(#clip0_70_47)">
<mask id="mask0_70_47" style="mask-type:luminance" maskUnits="userSpaceOnUse" x="0" y="0" width="16" height="16">
<path d="M16 0H0V16H16V0Z" fill="white"/>
</mask>
<g mask="url(#mask0_70_47)">
<path d="M12 2.33333H4C3.81591 2.33333 3.66667 2.48257 3.66667 2.66667V13.3333C3.66667 13.5174 3.81591 13.6667 4 13.6667H12C12.1841 13.6667 12.3333 13.5174 12.3333 13.3333V2.66667C12.3333 2.48257 12.1841 2.33333 12 2.33333Z" stroke="black" stroke-width="1.25"/>
<path d="M6 7.85186L7.4286 9.33333L10 6.66666" stroke="black" stroke-width="1.25" stroke-linecap="round" stroke-linejoin="round"/>
</g>
</g>
<defs>
<clipPath id="clip0_70_47">
<rect width="16" height="16" fill="white"/>
</clipPath>
</defs>
</svg>

<svg xmlns="http://www.w3.org/2000/svg" width="16" height="16" fill="none" viewBox="0 0 16 16"><g clip-path="url(#a)"><mask id="b" width="16" height="16" x="0" y="0" maskUnits="userSpaceOnUse" style="mask-type:luminance"><path fill="#fff" d="M16 0H0v16h16z"/></mask><g stroke="#000" stroke-width="1.25" mask="url(#b)"><path d="M12 2.333H4a.333.333 0 0 0-.333.334v10.666c0 .184.149.334.333.334h8c.184 0 .333-.15.333-.334V2.667A.333.333 0 0 0 12 2.333Z"/><path stroke-linecap="round" stroke-linejoin="round" d="m6 7.852 1.429 1.481L10 6.667"/></g></g><defs><clipPath id="a"><path fill="#fff" d="M0 0h16v16H0z"/></clipPath></defs></svg>
